svgs/regular/tenge-sign.svg

<svg xmlns="http://www.w3.org/2000/svg" viewBox="0 0 384 512"><!--! Font Awesome Pro 6.2.0 by @fontawesome - https://fontawesome.com License - https://fontawesome.com/license (Commercial License) Copyright 2022 Fonticons, Inc. --><path d="M0 56C0 42.75 10.75 32 24 32H360C373.3 32 384 42.75 384 56C384 69.25 373.3 80 360 80H24C10.75 80 0 69.25 0 56zM0 184C0 170.7 10.75 160 24 160H360C373.3 160 384 170.7 384 184C384 197.3 373.3 208 360 208H216V456C216 469.3 205.3 480 192 480C178.7 480 168 469.3 168 456V208H24C10.75 208 0 197.3 0 184z"/></svg>

<svg xmlns="http://www.w3.org/2000/svg" viewBox="0 0 384 512"><!--! Font Awesome Pro 6.3.0 by @fontawesome - https://fontawesome.com License - https://fontawesome.com/license (Commercial License) Copyright 2023 Fonticons, Inc. --><path d="M0 56C0 42.7 10.7 32 24 32H360c13.3 0 24 10.7 24 24s-10.7 24-24 24H24C10.7 80 0 69.3 0 56zM0 184c0-13.3 10.7-24 24-24H192 360c13.3 0 24 10.7 24 24s-10.7 24-24 24H216V456c0 13.3-10.7 24-24 24s-24-10.7-24-24V208H24c-13.3 0-24-10.7-24-24z"/></svg>
